X: 7430
T: Closed Door, The
R: jig
M: 6/8
K: Dmajor
|:B2 B AFA|def gfe|fbb baf|afe dBA|
B2 B AFA|def gfe|fbb afe|1 fdB BAF:|2 fdB B2 A||
|:FEF ABd|BAB d2 e|dBA def|ged cAG|FEF ABd|
BAB d2 e|1 fbb afe|fdB BAG:|2 fbb afe|fdB B3||

